X:31
T:Caie arkie O'tmer
Z: id:dc-reel-36
M:C
L:1/8
K:E Dorian
cB|A3g f3|e3 c2d|e2d e2d gfe|dBA efg|!
[1 dcd g3 fga|g2a bag|d3 D2G|!
A2G BGE|=cBc d2c|B2G AFD|EFG FEF|G2C EFG|A2G FGA|BGF G:|!
Bd|g2e fgb|agf afa|ffe dBG|AdB cAA|!
afe def|efg afd|g2b age|dgb agd|eab aff g2|]!